themes/clean-landing/static/images/openservicemesh.svg

<svg height="766" viewBox="0 0 1004 766" width="1004" xmlns="http://www.w3.org/2000/svg"><path d="m114.4775 209.92c14.128333 0 27.358333-2.695 39.69-8.085s23.1525-12.882917 32.4625-22.47875 16.59875-20.743333 21.86625-33.4425 7.90125-26.317083 7.90125-40.85375c0-14.6183333-2.63375-28.2566667-7.90125-40.915s-12.55625-23.7854167-21.86625-33.38125-20.130833-17.08875-32.4625-22.47875-25.561667-8.085-39.69-8.085-27.3583333 2.695-39.69 8.085-23.1525 12.8829167-32.4625 22.47875-16.59875 20.7229167-21.86625 33.38125-7.90125 26.2966667-7.90125 40.915c0 14.536667 2.63375 28.154583 7.90125 40.85375s12.55625 23.846667 21.86625 33.4425 20.1308333 17.08875 32.4625 22.47875 25.561667 8.085 39.69 8.085zm0-30.87c-9.555 0-18.43625-1.857917-26.64375-5.57375s-15.3533333-8.901667-21.4375-15.5575-10.8004167-14.475417-14.14875-23.45875-5.0225-18.783333-5.0225-29.4c0-10.6166667 1.6741667-20.4166667 5.0225-29.4s8.0645833-16.8029167 14.14875-23.45875 13.23-11.8416667 21.4375-15.5575 17.08875-5.57375 26.64375-5.57375c9.636667 0 18.55875 1.8579167 26.76625 5.57375s15.353333 8.9016667 21.4375 15.5575 10.800417 14.4754167 14.14875 23.45875 5.0225 18.7833333 5.0225 29.4c0 10.616667-1.674167 20.416667-5.0225 29.4s-8.064583 16.802917-14.14875 23.45875-13.23 11.841667-21.4375 15.5575-17.129583 5.57375-26.76625 5.57375zm185.342857 90.65v-83.79c5.471667 7.595 12.290834 13.495417 20.4575 17.70125 8.166667 4.205833 16.986667 6.30875 26.46 6.30875 11.841667 0 22.437917-2.919583 31.78875-8.75875 9.350834-5.839167 16.741667-13.78125 22.1725-23.82625 5.430834-10.045 8.14625-21.396667 8.14625-34.055 0-12.821667-2.735833-24.234583-8.2075-34.23875-5.471666-10.0041667-12.92375-17.9054167-22.35625-23.70375s-20.192083-8.6975-32.27875-8.6975c-9.555 0-18.375 2.02125-26.46 6.06375s-14.659166 9.6979167-19.7225 16.96625v-19.11h-30.5025v189.14zm38.22-85.8725c-7.513333 0-14.230416-1.735417-20.15125-5.20625-5.920833-3.470833-10.555416-8.26875-13.90375-14.39375-3.348333-6.125-5.0225-13.1075-5.0225-20.9475s1.694584-14.8225 5.08375-20.9475c3.389167-6.125 8.02375-10.922917 13.90375-14.39375s12.576667-5.20625 20.09-5.20625c7.513334 0 14.169167 1.735417 19.9675 5.20625 5.798334 3.470833 10.392084 8.289167 13.78125 14.455 3.389167 6.165833 5.08375 13.16875 5.08375 21.00875s-1.674166 14.802083-5.0225 20.88625c-3.348333 6.084167-7.942083 10.861667-13.78125 14.3325-5.839166 3.470833-12.515416 5.20625-20.02875 5.20625zm182.011641 26.0925c12.985 0 24.765417-2.797083 35.34125-8.39125 10.575834-5.594167 18.844584-13.372917 24.80625-23.33625l-22.1725-11.3925c-4.818333 6.288333-10.187916 10.96375-16.10875 14.02625-5.920833 3.0625-12.67875 4.59375-20.27375 4.59375-8.003333 0-15.087916-1.612917-21.25375-4.83875-6.165833-3.225833-10.96375-7.7175-14.39375-13.475s-5.145-12.43375-5.145-20.02875h102.165c.245-1.633333.408334-2.797083.49-3.49125.081667-.694167.1225-1.572083.1225-2.63375 0-12.821667-2.75625-24.050833-8.26875-33.6875-5.5125-9.6366667-13.189166-17.15-23.03-22.54-9.840833-5.39-21.294583-8.085-34.36125-8.085-9.555 0-18.456666 1.715-26.705 5.145-8.248333 3.43-15.475833 8.2075-21.6825 14.3325-6.206666 6.125-11.065833 13.23-14.5775 21.315-3.511666 8.085-5.2675 16.7825-5.2675 26.0925 0 12.576667 3.082917 23.8875 9.24875 33.9325 6.165834 10.045 14.536667 17.966667 25.1125 23.765 10.575834 5.798333 22.560417 8.6975 35.95375 8.6975zm33.32-81.9525h-71.1725c.816667-5.798333 2.8175-10.78 6.0025-14.945s7.309167-7.390833 12.3725-9.6775c5.063334-2.286667 10.820834-3.43 17.2725-3.43 6.125 0 11.678334 1.16375 16.66 3.49125 4.981667 2.3275 9.105834 5.57375 12.3725 9.73875 3.266667 4.165 5.430834 9.105833 6.4925 14.8225zm110.70836 78.0325v-76.93c0-5.226667 1.225-9.98375 3.675-14.27125s5.961666-7.7175 10.535-10.29c4.573333-2.5725 10.004166-3.85875 16.2925-3.85875 9.146666 0 16.312916 2.837917 21.49875 8.51375 5.185833 5.675833 7.77875 13.740417 7.77875 24.19375v72.6425h30.5025v-79.0125c0-10.29-2.000834-19.191667-6.0025-26.705-4.001667-7.5133333-9.61625-13.3320833-16.84375-17.45625s-15.659584-6.18625-25.29625-6.18625c-9.31 0-17.57875 1.77625-24.80625 5.32875s-13.005417 8.1054167-17.33375 13.65875v-15.0675h-30.5025v125.44zm-585.495358 281.675c39.445 0 76.195-16.905 76.195-65.17 0-26.46-24.745-45.57-47.285-55.125-23.03-9.8-42.14-17.885-42.14-29.155 0-11.025 8.33-18.13 24.01-18.13 20.825 0 40.915 13.965 40.915 13.965l18.62-36.75s-25.97-19.11-62.72-19.11c-32.585 0-65.905 24.01-65.905 61.74 0 21.07 14.21 39.935 38.465 51.94 24.01 12.005 45.57 18.62 45.57 33.32 0 18.865-19.11 19.845-29.155 19.845-22.54 0-49.49-22.785-49.49-22.785l-23.03 38.71s28.665 26.705 75.95 26.705zm171.39111 0c27.93 0 50.96-9.065 65.17-32.83l-31.36-15.68c-10.535 11.27-16.66 13.965-30.625 13.965-11.025 0-27.195-6.615-27.195-25.97h91.14c.245-1.47.245-4.165.245-5.88 0-44.1-29.155-66.64-67.375-66.64-37.975 0-69.09 29.89-69.09 66.64 0 36.505 31.115 66.395 69.09 66.395zm24.99-84.525h-47.775c.735-11.515 9.065-20.335 24.01-20.335 12.74 0 21.805 7.105 23.765 20.335zm119.206111 80.85v-66.15c0-3.185 3.185-25.48 25.725-25.48 14.455 0 22.54 6.86 22.54 6.86l18.13-36.75s-11.27-7.84-27.44-7.84c-24.745 0-38.465 21.805-38.465 21.805h-.49v-18.13h-43.365v125.685zm169.43111 0 67.375-125.685h-51.45l-30.625 68.355-30.625-68.355h-51.45l67.375 125.685zm113.08111-151.9c14.21 0 25.725-11.515 25.725-25.725s-11.515-25.725-25.725-25.725-25.725 11.515-25.725 25.725 11.515 25.725 25.725 25.725zm21.07 151.9v-125.685h-43.365v125.685zm104.75111 3.675c27.93 0 42.14-11.27 42.14-11.27l-14.7-30.135s-8.085 5.88-21.07 5.88c-16.415 0-29.89-13.72-29.89-31.115 0-17.15 13.475-30.87 29.89-30.87 12.985 0 21.07 5.88 21.07 5.88l14.7-29.645s-14.21-11.76-42.14-11.76c-36.505 0-69.58 29.89-69.58 66.885 0 36.75 33.32 66.15 69.58 66.15zm133.416111 0c27.93 0 50.96-9.065 65.169998-32.83l-31.359998-15.68c-10.535 11.27-16.66 13.965-30.625 13.965-11.025 0-27.195-6.615-27.195-25.97h91.139998c.245-1.47.245-4.165.245-5.88 0-44.1-29.154998-66.64-67.374998-66.64-37.975 0-69.09 29.89-69.09 66.64 0 36.505 31.115 66.395 69.09 66.395zm24.99-84.525h-47.775c.735-11.515 9.065-20.335 24.01-20.335 12.74 0 21.805 7.105 23.765 20.335zm-913.931662 358.85 9.555-119.805h1.225l41.405 118.58h27.44l41.405-118.58h1.225l9.555 119.805h46.06l-18.13-202.125h-49l-44.835 116.62-44.835-116.62h-49l-18.13 202.125zm270.12611 3.675c27.93 0 50.96-9.065 65.17-32.83l-31.36-15.68c-10.535 11.27-16.66 13.965-30.625 13.965-11.025 0-27.195-6.615-27.195-25.97h91.14c.245-1.47.245-4.165.245-5.88 0-44.1-29.155-66.64-67.375-66.64-37.975 0-69.09 29.89-69.09 66.64 0 36.505 31.115 66.395 69.09 66.395zm24.99-84.525h-47.775c.735-11.515 9.065-20.335 24.01-20.335 12.74 0 21.805 7.105 23.765 20.335zm114.796111 84.525c25.725 0 59.535-5.88 59.535-42.875 0-25.725-21.56-35.035-38.22-40.18-10.78-3.43-19.6-5.39-19.6-12.005 0-5.88 3.92-7.595 13.475-7.595 13.23 0 27.93 7.84 27.93 7.84l14.21-28.42s-17.885-9.8-42.14-9.8c-33.075 0-54.88 14.7-54.88 40.425 0 18.865 12.74 27.685 25.48 34.3 14.21 7.35 27.93 8.085 27.93 17.15 0 8.33-7.35 9.065-13.475 9.065-13.965 0-31.115-14.455-31.115-14.455l-17.64 29.645s18.13 16.905 48.51 16.905zm138.07111-3.675v-71.05c0-12.495 12.74-24.5 25.725-24.5 13.965 0 22.54 12.005 22.54 24.5v71.05h43.365v-82.81c0-35.035-32.095-46.55-55.125-46.55-13.72 0-26.215 7.105-36.015 16.905h-.49v-98.245h-43.365v210.7z" fill="#1128a9"/></svg>

<?xml version="1.0" encoding="UTF-8"?>
<svg width="1004px" height="766px" viewBox="0 0 1004 766" version="1.1" xmlns="http://www.w3.org/2000/svg" xmlns:xlink="http://www.w3.org/1999/xlink">
    <title>OpenServiceMesh</title>
    <g id="Page-1" stroke="none" stroke-width="1" fill="none" fill-rule="evenodd">
        <path d="M114.4775,209.92 C128.605833,209.92 141.835833,207.225 154.1675,201.835 C166.499167,196.445 177.32,188.952083 186.63,179.35625 C195.94,169.760417 203.22875,158.612917 208.49625,145.91375 C213.76375,133.214583 216.3975,119.596667 216.3975,105.06 C216.3975,90.4416667 213.76375,76.8033333 208.49625,64.145 C203.22875,51.4866667 195.94,40.3595833 186.63,30.76375 C177.32,21.1679167 166.499167,13.675 154.1675,8.285 C141.835833,2.895 128.605833,0.2 114.4775,0.2 C100.349167,0.2 87.1191667,2.895 74.7875,8.285 C62.4558333,13.675 51.635,21.1679167 42.325,30.76375 C33.015,40.3595833 25.72625,51.4866667 20.45875,64.145 C15.19125,76.8033333 12.5575,90.4416667 12.5575,105.06 C12.5575,119.596667 15.19125,133.214583 20.45875,145.91375 C25.72625,158.612917 33.015,169.760417 42.325,179.35625 C51.635,188.952083 62.4558333,196.445 74.7875,201.835 C87.1191667,207.225 100.349167,209.92 114.4775,209.92 Z M114.4775,179.05 C104.9225,179.05 96.04125,177.192083 87.83375,173.47625 C79.62625,169.760417 72.4804167,164.574583 66.39625,157.91875 C60.3120833,151.262917 55.5958333,143.443333 52.2475,134.46 C48.8991667,125.476667 47.225,115.676667 47.225,105.06 C47.225,94.4433333 48.8991667,84.6433333 52.2475,75.66 C55.5958333,66.6766667 60.3120833,58.8570833 66.39625,52.20125 C72.4804167,45.5454167 79.62625,40.3595833 87.83375,36.64375 C96.04125,32.9279167 104.9225,31.07 114.4775,31.07 C124.114167,31.07 133.03625,32.9279167 141.24375,36.64375 C149.45125,40.3595833 156.597083,45.5454167 162.68125,52.20125 C168.765417,58.8570833 173.481667,66.6766667 176.83,75.66 C180.178333,84.6433333 181.8525,94.4433333 181.8525,105.06 C181.8525,115.676667 180.178333,125.476667 176.83,134.46 C173.481667,143.443333 168.765417,151.262917 162.68125,157.91875 C156.597083,164.574583 149.45125,169.760417 141.24375,173.47625 C133.03625,177.192083 124.114167,179.05 114.4775,179.05 Z M299.820357,269.7 L299.820357,185.91 C305.292024,193.505 312.111191,199.405417 320.277857,203.61125 C328.444524,207.817083 337.264524,209.92 346.737857,209.92 C358.579524,209.92 369.175774,207.000417 378.526607,201.16125 C387.877441,195.322083 395.268274,187.38 400.699107,177.335 C406.129941,167.29 408.845357,155.938333 408.845357,143.28 C408.845357,130.458333 406.109524,119.045417 400.637857,109.04125 C395.166191,99.0370833 387.714107,91.1358333 378.281607,85.3375 C368.849107,79.5391667 358.089524,76.64 346.002857,76.64 C336.447857,76.64 327.627857,78.66125 319.542857,82.70375 C311.457857,86.74625 304.883691,92.4016667 299.820357,99.67 L299.820357,99.67 L299.820357,80.56 L269.317857,80.56 L269.317857,269.7 L299.820357,269.7 Z M338.040357,183.8275 C330.527024,183.8275 323.809941,182.092083 317.889107,178.62125 C311.968274,175.150417 307.333691,170.3525 303.985357,164.2275 C300.637024,158.1025 298.962857,151.12 298.962857,143.28 C298.962857,135.44 300.657441,128.4575 304.046607,122.3325 C307.435774,116.2075 312.070357,111.409583 317.950357,107.93875 C323.830357,104.467917 330.527024,102.7325 338.040357,102.7325 C345.553691,102.7325 352.209524,104.467917 358.007857,107.93875 C363.806191,111.409583 368.399941,116.227917 371.789107,122.39375 C375.178274,128.559583 376.872857,135.5625 376.872857,143.4025 C376.872857,151.2425 375.198691,158.204583 371.850357,164.28875 C368.502024,170.372917 363.908274,175.150417 358.069107,178.62125 C352.229941,182.092083 345.553691,183.8275 338.040357,183.8275 Z M520.051998,209.92 C533.036998,209.92 544.817415,207.122917 555.393248,201.52875 C565.969082,195.934583 574.237832,188.155833 580.199498,178.1925 L580.199498,178.1925 L558.026998,166.8 C553.208665,173.088333 547.839082,177.76375 541.918248,180.82625 C535.997415,183.88875 529.239498,185.42 521.644498,185.42 C513.641165,185.42 506.556582,183.807083 500.390748,180.58125 C494.224915,177.355417 489.426998,172.86375 485.996998,167.10625 C482.566998,161.34875 480.851998,154.6725 480.851998,147.0775 L480.851998,147.0775 L583.016998,147.0775 C583.261998,145.444167 583.425332,144.280417 583.506998,143.58625 C583.588665,142.892083 583.629498,142.014167 583.629498,140.9525 C583.629498,128.130833 580.873248,116.901667 575.360748,107.265 C569.848248,97.6283333 562.171582,90.115 552.330748,84.725 C542.489915,79.335 531.036165,76.64 517.969498,76.64 C508.414498,76.64 499.512832,78.355 491.264498,81.785 C483.016165,85.215 475.788665,89.9925 469.581998,96.1175 C463.375332,102.2425 458.516165,109.3475 455.004498,117.4325 C451.492832,125.5175 449.736998,134.215 449.736998,143.525 C449.736998,156.101667 452.819915,167.4125 458.985748,177.4575 C465.151582,187.5025 473.522415,195.424167 484.098248,201.2225 C494.674082,207.020833 506.658665,209.92 520.051998,209.92 Z M553.371998,127.9675 L482.199498,127.9675 C483.016165,122.169167 485.016998,117.1875 488.201998,113.0225 C491.386998,108.8575 495.511165,105.631667 500.574498,103.345 C505.637832,101.058333 511.395332,99.915 517.846998,99.915 C523.971998,99.915 529.525332,101.07875 534.506998,103.40625 C539.488665,105.73375 543.612832,108.98 546.879498,113.145 C550.146165,117.31 552.310332,122.250833 553.371998,127.9675 L553.371998,127.9675 Z M664.080358,206 L664.080358,129.07 C664.080358,123.843333 665.305358,119.08625 667.755358,114.79875 C670.205358,110.51125 673.717024,107.08125 678.290358,104.50875 C682.863691,101.93625 688.294524,100.65 694.582858,100.65 C703.729524,100.65 710.895774,103.487917 716.081608,109.16375 C721.267441,114.839583 723.860358,122.904167 723.860358,133.3575 L723.860358,133.3575 L723.860358,206 L754.362858,206 L754.362858,126.9875 C754.362858,116.6975 752.362024,107.795833 748.360358,100.2825 C744.358691,92.7691667 738.744108,86.9504167 731.516608,82.82625 C724.289108,78.7020833 715.857024,76.64 706.220358,76.64 C696.910358,76.64 688.641608,78.41625 681.414108,81.96875 C674.186608,85.52125 668.408691,90.0741667 664.080358,95.6275 L664.080358,95.6275 L664.080358,80.56 L633.577858,80.56 L633.577858,206 L664.080358,206 Z M78.585,487.675 C118.03,487.675 154.78,470.77 154.78,422.505 C154.78,396.045 130.035,376.935 107.495,367.38 C84.465,357.58 65.355,349.495 65.355,338.225 C65.355,327.2 73.685,320.095 89.365,320.095 C110.19,320.095 130.28,334.06 130.28,334.06 L148.9,297.31 C148.9,297.31 122.93,278.2 86.18,278.2 C53.595,278.2 20.275,302.21 20.275,339.94 C20.275,361.01 34.485,379.875 58.74,391.88 C82.75,403.885 104.31,410.5 104.31,425.2 C104.31,444.065 85.2,445.045 75.155,445.045 C52.615,445.045 25.665,422.26 25.665,422.26 L2.635,460.97 C2.635,460.97 31.3,487.675 78.585,487.675 Z M249.97611,487.675 C277.90611,487.675 300.93611,478.61 315.14611,454.845 L283.78611,439.165 C273.25111,450.435 267.12611,453.13 253.16111,453.13 C242.13611,453.13 225.96611,446.515 225.96611,427.16 L317.10611,427.16 C317.35111,425.69 317.35111,422.995 317.35111,421.28 C317.35111,377.18 288.19611,354.64 249.97611,354.64 C212.00111,354.64 180.88611,384.53 180.88611,421.28 C180.88611,457.785 212.00111,487.675 249.97611,487.675 Z M274.96611,403.15 L227.19111,403.15 C227.92611,391.635 236.25611,382.815 251.20111,382.815 C263.94111,382.815 273.00611,389.92 274.96611,403.15 Z M394.172221,484 L394.172221,417.85 C394.172221,414.665 397.357221,392.37 419.897221,392.37 C434.352221,392.37 442.437221,399.23 442.437221,399.23 L460.567221,362.48 C460.567221,362.48 449.297221,354.64 433.127221,354.64 C408.382221,354.64 394.662221,376.445 394.662221,376.445 L394.172221,376.445 L394.172221,358.315 L350.807221,358.315 L350.807221,484 L394.172221,484 Z M563.603331,484 L630.978331,358.315 L579.528331,358.315 L548.903331,426.67 L518.278331,358.315 L466.828331,358.315 L534.203331,484 L563.603331,484 Z M676.684441,332.1 C690.894441,332.1 702.409441,320.585 702.409441,306.375 C702.409441,292.165 690.894441,280.65 676.684441,280.65 C662.474441,280.65 650.959441,292.165 650.959441,306.375 C650.959441,320.585 662.474441,332.1 676.684441,332.1 Z M697.754441,484 L697.754441,358.315 L654.389441,358.315 L654.389441,484 L697.754441,484 Z M802.505551,487.675 C830.435551,487.675 844.645551,476.405 844.645551,476.405 L829.945551,446.27 C829.945551,446.27 821.860551,452.15 808.875551,452.15 C792.460551,452.15 778.985551,438.43 778.985551,421.035 C778.985551,403.885 792.460551,390.165 808.875551,390.165 C821.860551,390.165 829.945551,396.045 829.945551,396.045 L844.645551,366.4 C844.645551,366.4 830.435551,354.64 802.505551,354.64 C766.000551,354.64 732.925551,384.53 732.925551,421.525 C732.925551,458.275 766.245551,487.675 802.505551,487.675 Z M935.921662,487.675 C963.851662,487.675 986.881662,478.61 1001.09166,454.845 L969.731662,439.165 C959.196662,450.435 953.071662,453.13 939.106662,453.13 C928.081662,453.13 911.911662,446.515 911.911662,427.16 L1003.05166,427.16 C1003.29666,425.69 1003.29666,422.995 1003.29666,421.28 C1003.29666,377.18 974.141662,354.64 935.921662,354.64 C897.946662,354.64 866.831662,384.53 866.831662,421.28 C866.831662,457.785 897.946662,487.675 935.921662,487.675 Z M960.911662,403.15 L913.136662,403.15 C913.871662,391.635 922.201662,382.815 937.146662,382.815 C949.886662,382.815 958.951662,389.92 960.911662,403.15 Z M46.98,762 L56.535,642.195 L57.76,642.195 L99.165,760.775 L126.605,760.775 L168.01,642.195 L169.235,642.195 L178.79,762 L224.85,762 L206.72,559.875 L157.72,559.875 L112.885,676.495 L68.05,559.875 L19.05,559.875 L0.92,762 L46.98,762 Z M317.10611,765.675 C345.03611,765.675 368.06611,756.61 382.27611,732.845 L350.91611,717.165 C340.38111,728.435 334.25611,731.13 320.29111,731.13 C309.26611,731.13 293.09611,724.515 293.09611,705.16 L384.23611,705.16 C384.48111,703.69 384.48111,700.995 384.48111,699.28 C384.48111,655.18 355.32611,632.64 317.10611,632.64 C279.13111,632.64 248.01611,662.53 248.01611,699.28 C248.01611,735.785 279.13111,765.675 317.10611,765.675 Z M342.09611,681.15 L294.32111,681.15 C295.05611,669.635 303.38611,660.815 318.33111,660.815 C331.07111,660.815 340.13611,667.92 342.09611,681.15 Z M456.892221,765.675 C482.617221,765.675 516.427221,759.795 516.427221,722.8 C516.427221,697.075 494.867221,687.765 478.207221,682.62 C467.427221,679.19 458.607221,677.23 458.607221,670.615 C458.607221,664.735 462.527221,663.02 472.082221,663.02 C485.312221,663.02 500.012221,670.86 500.012221,670.86 L514.222221,642.44 C514.222221,642.44 496.337221,632.64 472.082221,632.64 C439.007221,632.64 417.202221,647.34 417.202221,673.065 C417.202221,691.93 429.942221,700.75 442.682221,707.365 C456.892221,714.715 470.612221,715.45 470.612221,724.515 C470.612221,732.845 463.262221,733.58 457.137221,733.58 C443.172221,733.58 426.022221,719.125 426.022221,719.125 L408.382221,748.77 C408.382221,748.77 426.512221,765.675 456.892221,765.675 Z M594.963331,762 L594.963331,690.95 C594.963331,678.455 607.703331,666.45 620.688331,666.45 C634.653331,666.45 643.228331,678.455 643.228331,690.95 L643.228331,762 L686.593331,762 L686.593331,679.19 C686.593331,644.155 654.498331,632.64 631.468331,632.64 C617.748331,632.64 605.253331,639.745 595.453331,649.545 L594.963331,649.545 L594.963331,551.3 L551.598331,551.3 L551.598331,762 L594.963331,762 Z" id="OpenServiceMesh" fill="#1128A9" fill-rule="nonzero"></path>
    </g>
</svg>
